X:1
T:When Lovers Meet Again
T:When Lovers Meet Again
T:Copyright © CPDL
T:Copyright © CPDL
T:Copyright © CPDL
T:Copyright © CPDL
T:Copyright © CPDL
Z:Copyright © CPDL
%%score 1 { ( 2 3 ) ( 4 5 ) }
L:1/8
Q:1/4=120
M:4/4
K:D
V:1 treble nm="P1"
V:2 treble nm="P2"
V:3 treble 
V:4 bass nm="P3"
V:5 bass 
V:1
"^Editor: John Henry Fowler""^(  Revision:   6 - 6 - 2008  )""^Allegro,  ma non troppo presto.""^Words by Langdon Elwyn Mitchell - (1862-1935)""^From \"English Lyrics\" -  Set 4 -  Number 2" z8 | %1
w: |
"^Dedicated \"To Maude\"" z8 |"^Charles Hubert Hastings Parry""^( 1848 - 1918 )" z8 | %3
w: ||
 z4!mf! z2!<(! A2!<)! | !>!f2 e2!>(! d3!>)! F | F4!<(! G2!<)! A2 | !>!c2 B4 d2 | E6 F2 | %8
w: When|lov- ers meet a-|gain, Then ob-|\-~scure ways grow|plain, Then|
 A2 G2 G2 B2 | e4!<(! d3 e!<)! | f4 d2 B2 | A6!p!!<)!!<(! A2 | =c3 c B2 F2 | %13
w: crook- ed path are|straight and the|rough pla- ces|smooth, Then|wea- ri- ness and|
"^cresc."!<(! A6!<)! G2 | e3 d d2 A2 | =c6 B2 | A2 G2 B3 d | d6 z2 | B4 A2 G2 | d3 e d2 G2 | %20
w: weight Have|wings as wide as|love. For|night is as the|day;|Love smiles love's|tears a- way And|
 G2 F2 F2 A2 | f6 B2 |"^rit." (d2!<(! c2) B2 d2!<)! | g2!>(! f2 c3!>)! e | d8 | z8 | z8 | %27
w: all hard paths are|smooth, When|lov- * ers, when|lov- ers meet a-|gain.|||
 z4!p! z2!<(! A2 | f2!<)! e2!>(! d3!>)! F | (F4 G2) A2 | c2 B2 B2 d2 | E4 z2 F2 | A3 G G2 B2 | %33
w: When|lov- ers kiss a-|gain _ The|dry bough blos- soms|then; Then|rolls a- way the|
 e4!<(! c4!<)! |!>(! f3 f!>)! d2 B2 | A6 z2 |!mf! =c4!<(! B2 F2!<)! | A3!<(! G!<)!"^cresc." B4 | %38
w: stone; Earth's|bit- ter- ness is|balm;|Light through the|night is blown;|
 e4 d3 A | =c3 B d2 BA | A2 G2 G3 B | d6 A2 | B4 A2!<)!!<(! G2 | !>!d2 B2 A3 G | G2 F4 A2 | f6 B2 | %46
w: Peace rocks the|world in calm; And the|ebb- ing tide is|full: For|two souls are|one soul, And ob-|\-~scure ways grow|plain, When|
"^rit." (d2!<(! c2) B2 d2!<)! | g8- | g2 f2 c3 e | d8- | d4 z4 | z8 |] %52
w: lov~\-- * \-~ers, when|lov-|* ers meet a-|gain.|_||
V:2
!f! (!>!F[da] D[Af] A,[Fd] F,)[DA] | (B,[Fd] F,[DB] x [B,F] x) [F,B,D] | %2
 z!<(! ([A,DF]2!<)! [^G,DE]) z!>(! [DEB]2!>)! [DE] | %3
 z ([=G,CF]2!<)!!<(! [G,CE]) z!>(! [CGB]2!>)! [CE] | z [DAd]2 [DA] z [DA]2 D | %5
 z [DFd]2 [DFB] z [DFB]2 [DF] | z ([B,DA]2 [B,DG]) z ([B,DF]2 [B,DE]) | %7
 z [B,DE]2 [B,CE] z ([B,CE]2 [A,DF]) | z [G,DG] z [G,CG] z [G,CG] z [G,B,G] | %9
 z [^A,EG] z [A,EG] z [B,EG] z [B,EG] | z [CEF] z [CEF] z [D^G] z [DEG] | %11
 z [EA] z [C=G] z [A,CF] z [A,CE] | z [A,=CE]2 [CEG] z [A,B,^D]2 [A,B,D] | %13
!<(! z [A,B,^D]2 [A,B,E] z [A,B,F]2!<)! [G,B,G] | z [EA=c] z [DAc] z [DAc] z [=CD] | %15
 z [=CD]2 [CDE] z [CDF]2 [DG] | z D z [DG] z [DGB] z [DGd] | z [DGd]2 [DF] z [DF] z [DFA] | %18
 z [DB]2 [B,D] z [DF]2 [DG] | z [DEGd] z [DE] z [EF] z [EFd] | z [A,DG]2 [A,DF]2 [A,CF]2 [A,CE] | %21
 z [CEF] z [EFe] z [DFd] z [E^G] | ([DFA]4 [D=G]2 [DF]2) | ([B,CG]2 [A,CF]2 [G,CE]2) z2 | %24
"^a tempo"!f! (!>!F[da] D[Af] A,[Fd] F,[DA]) | (!>!D[Bf] B,[Fd] x [Fd] x) [DA] | %26
 z ([A,DF]2 [^G,DE]) z ([DEB]2 [DE]) | z ([=G,CF]2 [G,CE]) z ([CGB]2 [CE]) | %28
 z [DAd]2 [DA] z [DA]2 D | z [DFd]2 [DFB] z [DFB] z [DF] | z [B,CF] z [B,DG] z [A,CG] z [B,DE] | %31
 z [B,DE] z [B,CE] z [B,CE] z [A,DF] | z [G,DG] z [G,CG] z [G,CG] z [G,B,G] | %33
 z [^A,EG] z [A,EG] z [B,EG] z [B,EG] | z [CEF] z [CEF] z [DF] z [DF^G] | %35
 z ([EA]2 [B,=G]) z ([A,CF]2 [A,CE]) | z [A,=CE]2 [A,CE] z [A,B,^D]2 [A,B,D] | %37
!<(! z [A,B,^D] z [G,B,E] z [B,EF]!<)! z [B,EG] | z [EA=c]2 [EAc] z [DAc] z [A,=CD] | %39
 z [G,=CD] z [G,B,E] z [B,DF] z [B,DG] | z E2 [DG] z [DG]2 [DGB] | z [DF]2 [DFA] z [DFA]2 [DFd] | %42
 z [B,D]2 [B,DG] z [DGA]2 [DGB] | z [DGd]2 [B,DE] z [DFA]2 [B,DG] | z [DG]2 [DF] z [A,CF]2 [A,CE] | %45
 z [^A,EF] z [EFe] z [DFd] z [DF^G] | ([DFA]4 [D=G]2) [DFd]2 | %47
 ([GBg]2 [Ff]2!<(! [EBe]2!<)! [DBd]2) | ([DGd]4 [Cc]2)!f! A2 | %49
"^a tempo" (!>!F[da] D[Af] A,[Fd] F,)[DA] | z [D^FG] z [DFA] z [DFB] z [E,=G,C] | %51
 ([G,CE]2 [F,D]2) !fermata![DFd]4 |] %52
V:3
 x8 | x8 | x8 | x8 | x8 | x8 | x8 | x8 | x8 | x8 | x8 | x8 | x8 | x8 | x8 | x8 | x8 | x8 | x8 | %19
 x8 | x8 | x8 | x8 | x8 | F2 D2 A,2 F,2 | D2 B,2 x4 | x8 | x8 | x8 | x8 | x8 | x8 | x8 | x8 | x8 | %35
 x8 | x8 | x8 | x8 | x8 | x8 | x8 | x8 | x8 | x8 | x8 | x8 | x8 | x8 | F2 D2 A,2 F,2 | x8 | x8 |] %52
V:4
 z8 | z4 D, x B,, x |!<(! E,,2!<)! B,,2!>(! E,2!>)! ^G,2 | (A,,2!<(! B,,2!<)!!>(! E,2)!>)! z2 | %4
 (F,,2 D,2 A,2) F,,2 | (B,,2 F,2 B,2) B,,2 | (E,,2 B,,2 E,2 G,2) | (E,,2 E,2 G,,2 F,,2) | %8
 (E,,2 B,,2) (D,,2 E,2) | (C,,2 C,2) (B,,2 B,2) | (^A,,2 F,2) (B,,2 ^G,2) | %11
 (C,2!>(! E,2) (A,,2!>)! G,,2) | (F,,2 =C,2) (C,,2 B,,2) |"^cresc."!<(! (E,,2 B,,2 E,2!<)! x2) | %14
 (F,,2 D,2 A,2 D,2) | (E,,2 D,2 A,2 B,2) | (B,,2 G,2 D2 G,2) | (A,,2 F,2 A,2 A,,2) | %18
 (G,,2 D,2 A,2 B,2) | (E,,2 B,,2 E,2 G,2) | (A,,2 F,2) (G,,2 E,2) | (F,,2 ^A,2) ([B,,B,]2 D2) | %22
"^rit." (A,4 B,2 A,2) | [A,,,A,,]6 A,2 | z8 | x4 F, x D, x | (E,,2 B,,2 C,2 ^G,2) | %27
 (A,,2 E,2 A,2 F,,2) | (F,,2 D,2 A,2 F,,2) | (B,,2 F,2 B,2) B,,2 | (E,,2 B,,2 E,2 G,2) | %31
 (G,,2 E,2) (G,,2 F,,2) | (C,,2 E,2) (D,,2 D,2) | (E,,2 C,2) (B,,2 B,2) | %34
 (^A,,2!>(! F,2) (B,,2!>)! ^G,2) | (C,2 E,2) (A,,2 G,,2) | (F,,2 =C,2) (B,,,2 B,,2) | %37
!<(! (D,,2 B,,2"^cresc." E,2!<)! E,,2) | (F,,2 D,2 A,2) F,,2 | (G,,2 D,2 B,2) G,,2 | %40
 (B,,2 G,2 D2 G,2) | (A,,2 F,2 A,2) z2 | (G,,2 D,2 G,2) z2 | (E,,2 B,,2 E,2 G,2) | %44
 (A,,2 A,2) (G,,2 E,2) | F,,2 F,2- F,2 ^G,2 |"^rit." (A,4 B,2) A,2 | B,6 B,2 | (B,4 A,2) A,2 | z8 | %50
 (B,2 A,2 ^G,2) [A,,,A,,]2 | [D,,,D,,]4 !fermata![D,A,]4 |] %52
V:5
 x8 | x8 | E,,6 z2 | A,,4 z2 A,,2 | F,,6 F,,2 | B,,6 B,,2 | E,,6 z2 | x8 | E,,4 D,,4 | C,,4 B,,4 | %10
 ^A,,4 B,,4 | C,4 x4 | x8 | E,,6 E,,2 | F,,6 D,2 | E,,4 z4 | B,,4 z4 | A,,6 A,,2 | G,,4 z4 | %19
 E,,4 z4 | A,,4 G,,4 | F,,4 x4 | A,,8 | x8 | x8 | x4 F,2 D,2 | E,,4 z4 | A,,6 F,,2 | F,,6 F,,2 | %29
 B,,6 B,,2 | E,,4 z4 | G,,4 x4 | C,,4 D,,4 | E,,4 B,,4 | ^A,,4 B,,4 | C,4 z4 | F,,4 B,,,4 | %37
 E,,6 E,,2 | F,,6 F,,2 | G,,6 G,,2 | B,,4 z4 | A,,6 A,,2 | G,,6 G,,2 | E,,4 z4 | A,,4 G,,4 | %45
 F,,4 B,,4 | A,,8 | (E,2!<(! F,2 G,2!<)! B,2) | [A,,E,]6 A,2 | x8 | x8 | x8 |] %52

